X:115
T:Tanke,The. JBs.115
S:Jas.Blackshaw MS, 1837, N.Shropshire
A:North Shropshire
Z:T. Weatherall 2006
M:2/4
L:1/16
Q:1/4=100
R:Country Dance
K:C
d2|c2câ€™2A2a2|d2gf e2c2|efg2 fga2|g2b2câ€™2:|!
|:z2|e2e2 g3e|affd dBBG|e2e2g3e|afdB c2:|

